X:204
T: Der Jger und sein Lieb (3-46), S. 121f
N: K1179
O: Luxemburg
S: KINTZELE, Guillaume: An der Ucht, Bd. 3 Luxemburg 1928]
N: in der Quelle mit einer 2. Stimme versehen
R: Jagd-, Liebeslied]
M: 6/8
L: 1/16
K: C
E2 | G4G2G2F2E2 | F4G2E4
G2 | c4G2E2D2C2 | G6z4
E2 | G2G2G2G2F2E2 | F4G2E4
G2 | c4G2E2D2C2 | G6z4
G2 | B4B2B2A2B2 | c4GGG4
G2 | d4F2F2E2A2 | A2G2G2G2z2
C2 | C2E2E2E2G2c2 | e8-e2
c2 | d2d2d2B2A2B2 | c2B2
A2G2G2G2 | f3BB2c4

@@@ Tune index: 8258
